X:1
T:Title
%%score { 1 | 2 }
L:1/8
Q:1/4=100
M:3/4
K:Ab
V:1 treble nm="Grand Piano"
V:2 bass 
V:1
 [CE]2 [CA]2 [DF]2 | [CE]3 [_C=D] [=CE]2 | [G,B,E]2 [B,EG]2 [DEB]2 | [CEA]4 z2 | %4
w: Chas.~H.~Gabriel * *||||
 [Ec]2 [EB]2 [EA]2 | B3 A F2 | [=DF]2 [EG]2 [FA]2 | G3 A B2 | d2 c2 B2 | [Ec]3 [EB] [EA]2 | %10
w: ||||||
 [FA]2 [EG]2 [DF]2 | [CE]4 z2 | e2 c2 [EA]2 | B3 A F2 | E2 A2 B2 | [CEA]6 |] %16
w: ||||||
V:2
 [A,,A,]2 [A,,E,]2 [A,,F,]2 | [A,,A,]3 [A,,A,] [A,,A,]2 | E,2 E,2 E,2 | A,,4 z2 | %4
 [A,,A,]2 [B,,G,]2 [C,A,]2 | [D,F,D]3 [D,F,D] [D,A,D]2 | [B,,B,]2 [B,,B,]2 [B,,B,]2 | %7
 [E,B,E]3 [F,B,=D] [E,G,E]2 | [E,B,E]2 [E,A,E]2 [E,G,E]2 | [A,,A,]3 [B,,G,] [C,A,]2 | %10
 [D,A,]2 [D,A,]2 [D,A,]2 | [A,,A,]4 z2 | [A,CE]2 [A,E]2 [C,A,]2 | [D,F,D]3 [D,F,D] [D,A,D]2 | %14
 [E,A,C]2 [E,CE]2 [E,DE]2 | A,,6 |] %16

